svgs/sharp-thin/box-archive.svg

<svg xmlns="http://www.w3.org/2000/svg" viewBox="0 0 512 512"><!--! Font Awesome Pro 6.6.0 by @fontawesome - https://fontawesome.com License - https://fontawesome.com/license (Commercial License) Copyright 2024 Fonticons, Inc. --><path d="M496 48L16 48l0 80 16 0 16 0 416 0 16 0 16 0 0-80zm-16 96l-16 0L48 144l-16 0-16 0L0 144l0-16L0 48 0 32l16 0 480 0 16 0 0 16 0 80 0 16-16 0-16 0zM160 224l8 0 176 0 8 0 0 16-8 0-176 0-8 0 0-16zm304-48l16 0 0 288 0 16-16 0L48 480l-16 0 0-16 0-288 16 0 0 288 416 0 0-288z"/></svg>

<svg xmlns="http://www.w3.org/2000/svg" viewBox="0 0 512 512"><!--! Font Awesome Pro 6.5.2 by @fontawesome - https://fontawesome.com License - https://fontawesome.com/license (Commercial License) Copyright 2024 Fonticons, Inc. --><path d="M496 48H16v80H32 48 464h16 16V48zm-16 96H464 48 32 16 0V128 48 32H16 496h16V48v80 16H496 480zM160 224h8H344h8v16h-8H168h-8V224zm304-48h16V464v16H464 48 32V464 176H48V464H464V176z"/></svg>
